!!!OTL: Heute marschieren wir (Band 1), S. 143
!!!id: P0821
**kern
*clefG2
*k[f#]
*e:
{16e
=1
16e
4g
8f#
8f#
=2
8e
8d#
8e
8f#
=3
4g
4f#
=4
4.e}
=5
{8e
=6
8g
8f#
8g
8a
=7
4b
8b
8a
=8
8.b
16a
8a
8g
=9
4.f#}
=10
{8e
=11
8.e
16e
8e
8e
=12
4.b
8b
=13
8b
8a
8a
8g
=14
4.f#}
=15
{8a
=16
8a
8g
8f#
8f#
=17
8e
8b
8a
8f#
=18
4g
4f#
=19
4e}
8r
=20
{8e
=21
8.e
16e
8e
8e
=22
4.b
8b
=23
8b
8a
8a
8g
=24
4.f#}
=25
{8a
=26
8a
8g
8f#
8f#
=27
8e
8b
8a
8f#
=28
4g
4f#
=29
2e}
==
*-
!!!minrhy: 16
!!!meters: 2/4 ]  ZZ[6
!!!cut: Heute marschieren wir (Band 1), S. 143
!!!reg: Lothringen
!!!trd: PINCK, Louis: Verklingende Weisen, Bd 1, Metz 1928
!!!rhy1:   X__X_X_  X_X_X_X_  X__X__  X__.
!!!rhy2: X_  X_X_X_X_  X__X_X_  X_.XX_X_  X__.
!!!key: P0821  16  E 2/4 ]  ZZ[6
!!!mod: SECHSTONSKALA MOLL ?]  AMBITUS[6b
!!!kad: 122121
!!!akz: 3b13b1_3b552_1552_413b1_1552_413b1_
!!!fot: 'a__b__bw_aw_bw_aw_
!!!for: 'a__b__c__d__c__dv_
!!!fok: 'Sd_^a_^a_\__^a_\__
!! PHRAS[VORWIEGEND AUFTAKTIG]
!!!fkt: Soldatenlied, Abschied
!! LOTH VKL
!! PR[12] 2K[9] 2G[31] 3K[0] 3G[0] 4A[1] 4Ü[0] 5A[1] 6K[0] 6G[3]
!! 7K[0] 7G[0] 8A[0] MEHR[0] SI[46] ABS[74] SR[41] SP[5]
!! ST[0] 2k[7] 2g[23] 3k[0] 3g[5] 4d[4] 4ü[0] 5d[0] 6k[0] 6g[0]
!! 7k[3] 7g[0] 8d[0] mehr[0] si[42] dm[+4] sr[30] sp[12]
!! 1F[4] 2F[73] 3F[11] 4F[0] LF[0] 2P[4] 3P[8] 4P[0] TRI[0] DF[5] AB[75]
!! TF[0] U3K[0] U3[0] U4[0] U4Ü[0] U5[3] U6K[0] U6[0] U7K[0] U7[1]
!! N1[16] N2K[0] N2[16] N3K[0] N3[15] N4[11] N4Ü[0] N5[23] N6K[0] N6[9]
!!!n7k: 0] N7[3] O1[4] O2K[0] O2[0] O3K[0] O3[0] HÖ[0
